X: 1
T:Coast Guard
M:C|
L:1/4
P:Flute
Q:1/2=120
K:F
!3!z4|zf/f/ a/g/f/a/|f4-|f2f/e/f/g/|az z2|Z|z/g/^f/=f/ e/g/c'|Z|
z/f/a/c'/ ^c'/a/_b/c'/|d'/a/f/d/ z/^d/^f/a/|g4-|g=d/e/ =f/g/a/=b/|c'4-|c'zz2|
!3!z4|zf/f/ a/g/f/a/|f4-|f2f/e/f/g/|azz2|Z|z/g/^f/=f/ e/g/ c'|Z|z/f/a/c'/ ^c'/a/=b/c'/|
d'f/a/ g/a/_b/g/|ac'/d'/ c'/b/a/g/|f/d/e/f/ g/e/f/g/|1f4|-ff/e/ f/^f/g/^g/:|]2f4-|fzfz|]
%%textfont helvetica 10
%%begintext
%% SO HERE'S THE COAST GUARD MARCHING SONG.
%% WE SING ON LAND OR SEA.
%% THROUGH SURF AND STORM AND HOWLING GALE,
%% HIGH SHALL OUR PURPOSE BE.
%% ?SEMPER PARATUS?  IS OUR GUIDE,
%% OUR FAME, OUR GLORY TOO.
%% TO FIGHT TO SAVE OR FIGHT TO DIE,
%% AYE! COAST GUARD WE ARE FOR YOU.
%%endtext
